X:3
T:Halling efter Mats Berglund
R:halling
Z:id:hn-halling-3
M:2/4
L:1/8
K:Dm
A,<C D>E | FF/D/ EE/C/ | A,A,/C/ D>E | FF/D/ ED/C/ |1 D2 D2 :|2 D2 D>E ||
|: FF/E/ F/A/F/D/ | EE/D/ ED/E/ | FF/E/ F/A/F/D/ | EE/D/ ED/E/ |
[1 FD/F/ ED/C/ | D2 D>E :|2 (3FDF (3EDC | D4 ||
|: [K:Dlyd] f>e d/e/f/g/ | ag/e/ gf | f>e d/e/f/g/ | ag/e/ f2 |
f>e d/e/f/g/ | ag/e/ gf |[K:Dm] A,<C D>E | FF/D/ ED/C/ | D4 :|

